svg/blobs-icons/no-decorations/carrot.svg

<svg xmlns="http://www.w3.org/2000/svg" xmlns:xlink="http://www.w3.org/1999/xlink" preserveAspectRatio="xMidYMid" width="103" height="216" viewBox="0 0 103 216"><defs><style>.cls-3{fill:#fbb713}.cls-4{fill:#000;opacity:.35}.cls-5{fill:#fbfbfb;opacity:.5}.cls-6{fill:#000;opacity:.45}.cls-7{fill:#0cb04a}</style></defs><g id="group-58svg"><path d="M101.564 66.577S64.512 205.164 64.512 205.164c-3.695 13.821-23.309 13.821-27.004.0L.455 66.577c-2.372-8.875 4.316-17.585 13.502-17.585H88.062c9.187.0 15.875 8.71 13.502 17.585z" id="path-1" class="cls-3" fill-rule="evenodd"/><path d="M88.063 48.992s-8.268.0-8.268.0c9.187.0 15.875 8.71 13.502 17.585L56.245 205.164C54.84 210.417 51.133 213.662 46.876 214.922 53.817 216.977 62.221 213.731 64.512 205.164L101.564 66.577c2.373-8.875-4.315-17.585-13.501-17.585z" id="path-2" class="cls-4" fill-rule="evenodd"/><path d="M88.063 48.992s-71.595.0-71.595.0C13.152 49.508 10.068 50.087 7.246 50.721 1.847 53.689-1.282 60.081.455 66.577L1.116 69.046C13.356 72.72 33.422 75.119 56.119 75.119c16.863.0 32.268-1.325 44.101-3.512L101.564 66.577c2.373-8.875-4.315-17.585-13.501-17.585z" id="path-3" class="cls-5" fill-rule="evenodd"/><path d="M65.478 49.271s0 10.464.0 10.464C65.478 65.101 61.468 69.451 56.521 69.451 51.575 69.451 47.565 65.101 47.565 59.735V49.271s17.913.0 17.913.0z" id="path-4" class="cls-6" fill-rule="evenodd"/><path d="M57.681 63.941s-13.342.0-13.342.0c-1.262.0-2.285-1.024-2.285-2.286V22.136c0-1.262 1.023-2.286 2.285-2.286H57.681c1.262.0 2.285 1.024 2.285 2.286v39.52c0 1.261-1.023 2.285-2.285 2.285z" id="path-5" class="cls-7" fill-rule="evenodd"/><path d="M51.01 19.85c-4.946.0-8.956 4.011-8.956 8.956V44.753c2.719 1.243 5.752 1.941 8.956 1.941s6.237-.698 8.956-1.941V28.806c0-4.945-4.01-8.956-8.956-8.956z" id="path-6" class="cls-6" fill-rule="evenodd"/><path d="M72.703 6.207C70.732 6.207 68.853 6.589 67.134 7.272 63.252 2.826 57.474-.003 51.01-.003S38.768 2.826 34.886 7.272C33.166 6.589 31.288 6.207 29.316 6.207c-8.163.0-14.78 6.439-14.78 14.383.0 7.943 6.617 14.383 14.78 14.383C31.288 34.973 33.166 34.59 34.886 33.908c3.882 4.447 9.66 7.275 16.124 7.275s12.242-2.828 16.124-7.275C68.853 34.59 70.732 34.973 72.703 34.973c8.164.0 14.781-6.44 14.781-14.383C87.484 12.646 80.867 6.207 72.703 6.207z" id="path-7" class="cls-7" fill-rule="evenodd"/><path d="M80.1 8.205C81.256 10.257 81.973 12.574 81.973 15.078c0 7.945-6.618 14.384-14.781 14.384C65.22 29.462 63.342 29.079 61.622 28.396c-3.881 4.446-9.659 7.276-16.124 7.276-6.464.0-12.242-2.83-16.124-7.276-1.72.683-3.598 1.066-5.569 1.066C21.096 29.462 18.591 28.701 16.409 27.464c2.511 4.454 7.317 7.509 12.907 7.509C31.288 34.973 33.166 34.59 34.886 33.908c3.882 4.447 9.66 7.275 16.124 7.275s12.242-2.828 16.124-7.275C68.853 34.59 70.731 34.973 72.703 34.973c8.164.0 14.781-6.44 14.781-14.383.0-5.308-2.988-9.892-7.384-12.385z" id="path-8" class="cls-4" fill-rule="evenodd"/><path d="M61.63 105.067s-43.173.0-43.173.0C16.473 105.067 14.865 103.459 14.865 101.476 14.865 99.492 16.473 97.883 18.457 97.883H61.63C63.614 97.883 65.222 99.492 65.222 101.476 65.222 103.459 63.614 105.067 61.63 105.067z" id="path-9" class="cls-4" fill-rule="evenodd"/><path d="M62.874 147.09s-21.854.0-21.854.0C39.036 147.09 37.427 145.482 37.427 143.498 37.427 141.515 39.036 139.906 41.02 139.906H62.874C64.857 139.906 66.466 141.515 66.466 143.498 66.466 145.482 64.857 147.09 62.874 147.09z" id="path-10" class="cls-4" fill-rule="evenodd"/><path d="M54.368 189.115s-13.566.0-13.566.0C38.818 189.115 37.21 187.506 37.21 185.522 37.21 183.538 38.818 181.929 40.802 181.929H54.368C56.352 181.929 57.96 183.538 57.96 185.522 57.96 187.506 56.352 189.115 54.368 189.115z" id="path-11" class="cls-4" fill-rule="evenodd"/></g></svg>

<svg xmlns="http://www.w3.org/2000/svg" xmlns:xlink="http://www.w3.org/1999/xlink" preserveAspectRatio="xMidYMid" width="103" height="216" viewBox="0 0 103 216">
  <defs>
    <style>

      .cls-3 {
        fill: #fbb713;
      }

      .cls-4 {
        fill: #000000;
        opacity: 0.35;
      }

      .cls-5 {
        fill: #fbfbfb;
        opacity: 0.5;
      }

      .cls-6 {
        fill: #000000;
        opacity: 0.45;
      }

      .cls-7 {
        fill: #0cb04a;
      }
    </style>
  </defs>
  <g id="group-58svg">
    <path d="M101.564,66.577 C101.564,66.577 64.512,205.164 64.512,205.164 C60.817,218.985 41.203,218.985 37.508,205.164 C37.508,205.164 0.455,66.577 0.455,66.577 C-1.917,57.702 4.771,48.992 13.957,48.992 C13.957,48.992 88.062,48.992 88.062,48.992 C97.249,48.992 103.937,57.702 101.564,66.577 Z" id="path-1" class="cls-3" fill-rule="evenodd"/>
    <path d="M88.063,48.992 C88.063,48.992 79.795,48.992 79.795,48.992 C88.982,48.992 95.670,57.702 93.297,66.577 C93.297,66.577 56.245,205.164 56.245,205.164 C54.840,210.417 51.133,213.662 46.876,214.922 C53.817,216.977 62.221,213.731 64.512,205.164 C64.512,205.164 101.564,66.577 101.564,66.577 C103.937,57.702 97.249,48.992 88.063,48.992 Z" id="path-2" class="cls-4" fill-rule="evenodd"/>
    <path d="M88.063,48.992 C88.063,48.992 16.468,48.992 16.468,48.992 C13.152,49.508 10.068,50.087 7.246,50.721 C1.847,53.689 -1.282,60.081 0.455,66.577 C0.455,66.577 1.116,69.046 1.116,69.046 C13.356,72.720 33.422,75.119 56.119,75.119 C72.982,75.119 88.387,73.794 100.220,71.607 C100.220,71.607 101.564,66.577 101.564,66.577 C103.937,57.702 97.249,48.992 88.063,48.992 Z" id="path-3" class="cls-5" fill-rule="evenodd"/>
    <path d="M65.478,49.271 C65.478,49.271 65.478,59.735 65.478,59.735 C65.478,65.101 61.468,69.451 56.521,69.451 C56.521,69.451 56.521,69.451 56.521,69.451 C51.575,69.451 47.565,65.101 47.565,59.735 C47.565,59.735 47.565,49.271 47.565,49.271 C47.565,49.271 65.478,49.271 65.478,49.271 Z" id="path-4" class="cls-6" fill-rule="evenodd"/>
    <path d="M57.681,63.941 C57.681,63.941 44.339,63.941 44.339,63.941 C43.077,63.941 42.054,62.917 42.054,61.655 C42.054,61.655 42.054,22.136 42.054,22.136 C42.054,20.874 43.077,19.850 44.339,19.850 C44.339,19.850 57.681,19.850 57.681,19.850 C58.943,19.850 59.966,20.874 59.966,22.136 C59.966,22.136 59.966,61.656 59.966,61.656 C59.966,62.917 58.943,63.941 57.681,63.941 Z" id="path-5" class="cls-7" fill-rule="evenodd"/>
    <path d="M51.010,19.850 C46.064,19.850 42.054,23.861 42.054,28.806 C42.054,28.806 42.054,44.753 42.054,44.753 C44.773,45.996 47.806,46.694 51.010,46.694 C54.214,46.694 57.247,45.996 59.966,44.753 C59.966,44.753 59.966,28.806 59.966,28.806 C59.966,23.861 55.956,19.850 51.010,19.850 Z" id="path-6" class="cls-6" fill-rule="evenodd"/>
    <path d="M72.703,6.207 C70.732,6.207 68.853,6.589 67.134,7.272 C63.252,2.826 57.474,-0.003 51.010,-0.003 C44.546,-0.003 38.768,2.826 34.886,7.272 C33.166,6.589 31.288,6.207 29.316,6.207 C21.153,6.207 14.536,12.646 14.536,20.590 C14.536,28.533 21.153,34.973 29.316,34.973 C31.288,34.973 33.166,34.590 34.886,33.908 C38.768,38.355 44.546,41.183 51.010,41.183 C57.474,41.183 63.252,38.355 67.134,33.908 C68.853,34.590 70.732,34.973 72.703,34.973 C80.867,34.973 87.484,28.533 87.484,20.590 C87.484,12.646 80.867,6.207 72.703,6.207 Z" id="path-7" class="cls-7" fill-rule="evenodd"/>
    <path d="M80.100,8.205 C81.256,10.257 81.973,12.574 81.973,15.078 C81.973,23.023 75.355,29.462 67.192,29.462 C65.220,29.462 63.342,29.079 61.622,28.396 C57.741,32.842 51.963,35.672 45.498,35.672 C39.034,35.672 33.256,32.842 29.374,28.396 C27.654,29.079 25.776,29.462 23.805,29.462 C21.096,29.462 18.591,28.701 16.409,27.464 C18.920,31.918 23.726,34.973 29.316,34.973 C31.288,34.973 33.166,34.590 34.886,33.908 C38.768,38.355 44.546,41.183 51.010,41.183 C57.474,41.183 63.252,38.355 67.134,33.908 C68.853,34.590 70.731,34.973 72.703,34.973 C80.867,34.973 87.484,28.533 87.484,20.590 C87.484,15.282 84.496,10.698 80.100,8.205 Z" id="path-8" class="cls-4" fill-rule="evenodd"/>
    <path d="M61.630,105.067 C61.630,105.067 18.457,105.067 18.457,105.067 C16.473,105.067 14.865,103.459 14.865,101.476 C14.865,99.492 16.473,97.883 18.457,97.883 C18.457,97.883 61.630,97.883 61.630,97.883 C63.614,97.883 65.222,99.492 65.222,101.476 C65.222,103.459 63.614,105.067 61.630,105.067 Z" id="path-9" class="cls-4" fill-rule="evenodd"/>
    <path d="M62.874,147.090 C62.874,147.090 41.020,147.090 41.020,147.090 C39.036,147.090 37.427,145.482 37.427,143.498 C37.427,141.515 39.036,139.906 41.020,139.906 C41.020,139.906 62.874,139.906 62.874,139.906 C64.857,139.906 66.466,141.515 66.466,143.498 C66.466,145.482 64.857,147.090 62.874,147.090 Z" id="path-10" class="cls-4" fill-rule="evenodd"/>
    <path d="M54.368,189.115 C54.368,189.115 40.802,189.115 40.802,189.115 C38.818,189.115 37.210,187.506 37.210,185.522 C37.210,183.538 38.818,181.929 40.802,181.929 C40.802,181.929 54.368,181.929 54.368,181.929 C56.352,181.929 57.960,183.538 57.960,185.522 C57.960,187.506 56.352,189.115 54.368,189.115 Z" id="path-11" class="cls-4" fill-rule="evenodd"/>
  </g>
</svg>
